dist/img/svg/ic_dl.svg

<svg width="23" height="40" viewBox="0 0 23 40" fill="none" xmlns="http://www.w3.org/2000/svg">
<path d="M10.1529 38.674C10.7367 39.2578 11.6832 39.2578 12.267 38.674L21.7801 29.1609C22.3639 28.5771 22.3639 27.6306 21.7801 27.0469C21.1963 26.4631 20.2498 26.4631 19.6661 27.0469L11.21 35.503L2.75385 27.0469C2.17008 26.4631 1.2236 26.4631 0.639826 27.0469C0.0560536 27.6306 0.0560536 28.5771 0.639826 29.1609L10.1529 38.674ZM9.71512 0.364624L9.71512 37.617L12.7048 37.617L12.7048 0.364624L9.71512 0.364624Z" fill="#322B2B"/>
</svg>

<svg width="23" height="40" viewBox="0 0 23 40" fill="none" xmlns="http://www.w3.org/2000/svg"><path d="M10.153 38.674c.584.584 1.53.584 2.114 0l9.513-9.513a1.495 1.495 0 10-2.114-2.114l-8.456 8.456-8.456-8.456A1.495 1.495 0 10.64 29.16l9.513 9.513zM9.715.364v37.253h2.99V.365h-2.99z" fill="#322B2B"/></svg>
